icons/svg/shields/h_crane_shield.svg

<?xml version="1.0" encoding="UTF-8" standalone="no"?>
<!-- Created with Inkscape (http://www.inkscape.org/) -->

<svg
   xmlns:dc="http://purl.org/dc/elements/1.1/"
   xmlns:cc="http://creativecommons.org/ns#"
   xmlns:rdf="http://www.w3.org/1999/02/22-rdf-syntax-ns#"
   xmlns:svg="http://www.w3.org/2000/svg"
   xmlns="http://www.w3.org/2000/svg"
   xmlns:sodipodi="http://sodipodi.sourceforge.net/DTD/sodipodi-0.dtd"
   xmlns:inkscape="http://www.inkscape.org/namespaces/inkscape"
   version="1.0"
   width="16"
   height="16"
   id="svg2"
   sodipodi:version="0.32"
   inkscape:version="0.91 r13725"
   sodipodi:docname="h_crane_shield.svg"
   inkscape:output_extension="org.inkscape.output.svg.inkscape">
  <metadata
     id="metadata10">
    <rdf:RDF>
      <cc:Work
         rdf:about="">
        <dc:format>image/svg+xml</dc:format>
        <dc:type
           rdf:resource="http://purl.org/dc/dcmitype/StillImage" />
        <cc:license
           rdf:resource="http://web.resource.org/cc/PublicDomain" />
        <dc:language>en</dc:language>
        <dc:title />
      </cc:Work>
    </rdf:RDF>
  </metadata>
  <sodipodi:namedview
     inkscape:window-height="1006"
     inkscape:window-width="1920"
     inkscape:pageshadow="2"
     inkscape:pageopacity="0.0"
     guidetolerance="10.0"
     gridtolerance="10.0"
     objecttolerance="10.0"
     borderopacity="1.0"
     bordercolor="#666666"
     pagecolor="#ffffff"
     id="base"
     showgrid="false"
     inkscape:zoom="22.627417"
     inkscape:cx="7.3190763"
     inkscape:cy="11.156909"
     inkscape:window-x="1920"
     inkscape:window-y="0"
     inkscape:current-layer="svg2"
     inkscape:window-maximized="1" />
  <defs
     id="defs4">
    <inkscape:perspective
       sodipodi:type="inkscape:persp3d"
       inkscape:vp_x="0 : 290 : 1"
       inkscape:vp_y="0 : 1000 : 0"
       inkscape:vp_z="580 : 290 : 1"
       inkscape:persp3d-origin="290 : 193.33333 : 1"
       id="perspective12" />
    <style
       type="text/css"
       id="style6">
   
    .fil0 {fill:#EF7900}
   
  </style>
    <inkscape:perspective
       id="perspective6807"
       inkscape:persp3d-origin="29.116032 : 19.410688 : 1"
       inkscape:vp_z="58.232063 : 29.116032 : 1"
       inkscape:vp_y="0 : 1000 : 0"
       inkscape:vp_x="0 : 29.116032 : 1"
       sodipodi:type="inkscape:persp3d" />
    <inkscape:perspective
       id="perspective6954"
       inkscape:persp3d-origin="290 : 193.33333 : 1"
       inkscape:vp_z="580 : 290 : 1"
       inkscape:vp_y="0 : 1000 : 0"
       inkscape:vp_x="0 : 290 : 1"
       sodipodi:type="inkscape:persp3d" />
    <inkscape:perspective
       id="perspective2541"
       inkscape:persp3d-origin="240 : 160 : 1"
       inkscape:vp_z="480 : 240 : 1"
       inkscape:vp_y="0 : 1000 : 0"
       inkscape:vp_x="0 : 240 : 1"
       sodipodi:type="inkscape:persp3d" />
    <inkscape:perspective
       id="perspective2750"
       inkscape:persp3d-origin="215 : 143.33333 : 1"
       inkscape:vp_z="430 : 215 : 1"
       inkscape:vp_y="0 : 1000 : 0"
       inkscape:vp_x="0 : 215 : 1"
       sodipodi:type="inkscape:persp3d" />
    <inkscape:perspective
       id="perspective3730"
       inkscape:persp3d-origin="88.929146 : 101.19778 : 1"
       inkscape:vp_z="177.85829 : 151.79668 : 1"
       inkscape:vp_y="0 : 1000 : 0"
       inkscape:vp_x="0 : 151.79668 : 1"
       sodipodi:type="inkscape:persp3d" />
    <inkscape:perspective
       id="perspective7840"
       inkscape:persp3d-origin="0.5 : 0.33333333 : 1"
       inkscape:vp_z="1 : 0.5 : 1"
       inkscape:vp_y="0 : 1000 : 0"
       inkscape:vp_x="0 : 0.5 : 1"
       sodipodi:type="inkscape:persp3d" />
  </defs>
  <path
     style="color:#000000;font-style:normal;font-variant:normal;font-weight:normal;font-stretch:normal;font-size:medium;line-height:normal;font-family:Sans;-inkscape-font-specification:Sans;text-indent:0;text-align:start;text-decoration:none;text-decoration-line:none;letter-spacing:normal;word-spacing:normal;text-transform:none;direction:ltr;block-progression:tb;writing-mode:lr-tb;baseline-shift:baseline;text-anchor:start;display:inline;overflow:visible;visibility:visible;opacity:0.804;fill:#ebe7e4;fill-opacity:1;stroke:none;stroke-width:1.07676268;marker:none;enable-background:accumulate"
     d="m 12.839351,1.5608263 -9.7483754,0.1339063 -0.026781,0 c -0.029991,0.0023 -0.14802,0.00156 -0.1339062,0 0.016937,-0.00187 -0.1505841,0.030271 -0.1339063,0.026781 0.016678,-0.00349 -0.1501701,0.031862 -0.1339062,0.026781 0.016264,-0.00508 -0.1496048,0.060187 -0.1339063,0.053562 0.015699,-0.00662 -0.1488933,0.08845 -0.1339062,0.080344 0.014987,-0.00811 -0.1212611,0.063076 -0.107125,0.053562 0.014136,-0.00951 -0.1202785,0.091175 -0.107125,0.080344 0.013154,-0.010831 -0.1191735,0.1191734 -0.107125,0.107125 0.012049,-0.012049 -0.1179563,0.1202785 -0.107125,0.107125 0.010831,-0.013154 -0.089857,0.121261 -0.080344,0.107125 0.00951,-0.014136 -0.061669,0.122112 -0.053563,0.107125 0.00811,-0.014987 -0.086969,0.1496047 -0.080344,0.1339062 0.00662,-0.015699 -0.058644,0.1501702 -0.053562,0.1339063 0.00508,-0.016264 -0.030271,0.150584 -0.026781,0.1339062 0.00349,-0.016678 -0.028648,0.1508428 -0.026781,0.1339063 0.00156,-0.014114 0.0023,0.1039158 0,0.1339062 -4.61e-4,0.006 -3.77e-5,0.029621 0,0.026781 l -0.053562,2.678125 0,0.026781 c 7.295e-4,0.032368 8.878e-4,0.149165 0,0.1339063 -0.00107,-0.018311 0.02974,0.1787886 0.026781,0.1606875 -0.00296,-0.018101 0.031601,0.1516029 0.026781,0.1339062 -0.00482,-0.017697 0.060192,0.1510076 0.053562,0.1339063 -0.00663,-0.017101 0.06193,0.1770091 0.053562,0.1606875 -0.00837,-0.016322 0.090359,0.1224908 0.080344,0.107125 -0.010015,-0.015366 0.091898,0.1481506 0.080344,0.1339062 -0.011554,-0.014244 0.1200943,0.1200943 0.107125,0.107125 -0.012969,-0.012969 0.1213693,0.1186794 0.107125,0.107125 -0.014244,-0.011554 0.1492721,0.090359 0.1339062,0.080344 -0.015366,-0.010015 0.1234467,0.088711 0.107125,0.080344 -0.016322,-0.00836 0.1777889,0.060192 0.1606875,0.053562 -0.017101,-0.00663 0.151603,0.058382 0.1339063,0.053562 -0.017697,-0.00482 0.1520073,0.02974 0.1339062,0.026781 -0.018101,-0.00296 0.1789979,0.027847 0.1606875,0.026781 -0.00305,-1.776e-4 0.020307,6.57e-5 0.026781,0 l -1.07125,5.6508437 c -0.0751,0.491196 0.097414,1.006556 0.3883281,1.258719 0.2909142,0.252163 0.7106056,0.467093 1.2611405,0.373228 0.6250104,-0.106564 1.1064637,-0.566127 1.1893439,-1.096322 l 0.1339062,-0.669531 2.6513438,-0.910563 0.1874687,1.2855 c -5.025e-4,-0.0069 -0.00379,0.0237 0,0.05356 0.00606,0.04778 0.028724,0.09134 0.026781,0.08034 -0.00315,-0.01787 0.031755,0.17814 0.026781,0.160687 -0.00497,-0.01745 0.060301,0.150757 0.053562,0.133906 -0.00674,-0.01685 0.061994,0.149976 0.053562,0.133907 -0.00843,-0.01607 0.090381,0.149025 0.080344,0.133906 -0.010037,-0.01512 0.091879,0.121134 0.080344,0.107125 -0.011535,-0.01401 0.1200372,0.119877 0.107125,0.107125 -0.012912,-0.01275 0.1212775,0.118484 0.107125,0.107125 -0.014152,-0.01136 0.1491497,0.09019 0.1339063,0.08034 -0.015243,-0.0098 0.1500797,0.08858 0.1339062,0.08034 -0.016173,-0.0082 0.1508391,0.06009 0.1339063,0.05356 -0.016933,-0.0065 0.1514194,0.05832 0.1339062,0.05356 -0.017513,-0.0047 0.1518151,0.02971 0.1339063,0.02678 -0.017909,-0.0029 0.1788028,0.02786 0.1606875,0.02678 -0.018115,-0.0011 0.1788181,-7.84e-4 0.1606875,0 -0.018131,7.84e-4 0.1518607,-0.02942 0.1339062,-0.02678 -0.017954,0.0027 0.1782762,-0.03125 0.1606875,-0.02678 -0.017589,0.0045 0.1509436,-0.03303 0.1339063,-0.02678 -0.017037,0.0063 0.1502124,-0.08831 0.1339062,-0.08034 -0.016309,0.008 0.1493091,-0.06316 0.1339063,-0.05356 -0.0154,0.0096 0.1214614,-0.09147 0.1071254,-0.08034 -0.01434,0.01112 0.147025,-0.119664 0.133906,-0.107125 -0.01312,0.01254 0.09211,-0.120944 0.08034,-0.107125 -0.01177,0.01382 0.117408,-0.148859 0.107125,-0.133906 -0.01028,0.01495 0.08904,-0.123054 0.08034,-0.107125 -0.0087,0.01593 0.06057,-0.150644 0.05356,-0.133906 -0.007,0.01674 0.05882,-0.178057 0.05356,-0.160688 -0.0052,0.01737 0.03023,-0.151723 0.02678,-0.133906 -0.0034,0.01782 0.02838,-0.151983 0.02678,-0.133906 -0.0016,0.01807 -2.61e-4,-0.178834 0,-0.160688 2.6e-4,0.01814 -0.0021,-0.178711 0,-0.160687 8.16e-4,0.0069 0.0051,-0.0239 0,-0.05356 l -0.02678,-0.08034 -0.374938,-2.597781 -0.6159687,-4.1510937 2.4103127,-1.07125 0,3.64225 c -0.02166,0.033546 -0.06068,0.092389 -0.05356,0.080344 0.0099,-0.01673 -0.06183,0.1247062 -0.05356,0.107125 0.0083,-0.017581 -0.06015,0.1521846 -0.05356,0.1339062 0.0066,-0.018278 -0.03163,0.1259401 -0.02678,0.107125 0.0049,-0.018815 -0.02985,0.1530929 -0.02678,0.1339063 0.0031,-0.019186 -0.02804,0.1532959 -0.02678,0.1339062 -0.02923,-2.483e-4 -0.06167,3.513e-4 -0.05356,0 0.02026,-8.741e-4 -0.153985,0.00286 -0.133906,0 0.02008,-0.00286 -0.153608,0.031596 -0.133906,0.026781 0.0197,-0.00482 -0.153041,0.060285 -0.133907,0.053562 0.01914,-0.00672 -0.125508,0.035347 -0.107125,0.026781 0.01838,-0.00856 -0.151361,0.09067 -0.133906,0.080344 0.01746,-0.010326 -0.123484,0.06555 -0.107125,0.053563 0.01636,-0.011988 -0.12223,0.1206583 -0.107125,0.107125 0.01511,-0.013534 -0.09405,0.095292 -0.08034,0.080344 0.0137,-0.014946 -0.119299,0.1233455 -0.107125,0.107125 0.01218,-0.016223 -0.06409,0.1244604 -0.05356,0.107125 0.01052,-0.017337 -0.08912,0.1254092 -0.08034,0.1071252 0.0088,-0.01829 -0.0605,0.152962 -0.05356,0.133906 0.0069,-0.01906 -0.03182,0.153551 -0.02678,0.133906 0.0051,-0.01964 -0.02988,0.153951 -0.02678,0.133907 0.0031,-0.02005 -0.0279,0.154157 -0.02678,0.133906 0.0011,-0.02025 8.57e-4,0.154168 0,0.133906 -8.57e-4,-0.02026 0.02964,0.153984 0.02678,0.133906 -0.0028,-0.02008 0.0316,0.153607 0.02678,0.133907 -0.0048,-0.0197 0.0335,0.126259 0.02678,0.107125 -0.0067,-0.01914 0.06213,0.152288 0.05356,0.133906 -0.0086,-0.01838 0.06389,0.124579 0.05356,0.107125 -0.01033,-0.01746 0.09233,0.150264 0.08034,0.133906 -0.01199,-0.01636 0.09388,0.09545 0.08034,0.08034 -0.01353,-0.01511 0.122075,0.12083 0.107125,0.107125 -0.01495,-0.0137 0.09656,0.09252 0.08034,0.08034 -0.01622,-0.01218 0.151242,0.09087 0.133906,0.08034 -0.01734,-0.01052 0.125409,0.06234 0.107125,0.05356 0,0 0.411592,0.199988 0.910563,0.348156 0.223593,0.06639 0.573509,0.178821 0.990906,0.160688 0.235375,-0.01019 0.542704,-0.08202 0.803437,-0.241032 0.378068,-0.230563 0.625958,-0.548956 0.723094,-1.044468 0.110639,-0.564427 0.05502,-1.048012 0,-1.3926254 -0.04695,-0.2940538 -0.08927,-0.435696 -0.107125,-0.5088438 0.0023,0.016973 -0.03045,-0.1238521 -0.02678,-0.107125 0.0037,0.016727 -0.03181,-0.1234925 -0.02678,-0.107125 0.0051,0.016368 -0.05993,-0.1230212 -0.05356,-0.107125 l 0,-5.8650937 0,-0.053562 c 5.07e-4,-0.01353 0,-0.032525 0,-0.026781 0,0.017231 -0.0011,-0.070756 0,-0.053562 -0.0078,-0.027146 -0.01671,-0.05396 -0.02678,-0.080344 1.21e-4,-0.00893 1.21e-4,-0.017855 0,-0.026781 -0.0045,-0.054176 -0.01347,-0.1079804 -0.02678,-0.1606875 0.0018,0.00551 0.0045,-0.014995 0,-0.026781 -0.0084,-0.018119 -0.01732,-0.035984 -0.02678,-0.053563 0.0074,0.017869 -0.03542,-0.097624 -0.02678,-0.080344 0.0074,0.017869 -0.03542,-0.097624 -0.02678,-0.080344 0.0086,0.017281 -0.06345,-0.07016 -0.05356,-0.053562 0.0099,0.016598 -0.06464,-0.096169 -0.05356,-0.080344 -0.01653,-0.02763 -0.03442,-0.054454 -0.05356,-0.080344 0.01557,0.018769 -0.07081,-0.097587 -0.05356,-0.080344 0.01724,0.017243 -0.09911,-0.069131 -0.08034,-0.053562 -0.01758,-0.00946 -0.03544,-0.018396 -0.05356,-0.026781 0.0037,0.00394 -0.0094,-0.00912 -0.02678,-0.026781 0.0061,0.00426 -0.01068,-0.01644 -0.02678,-0.026781 0.0048,0.00457 -0.03238,-0.00768 -0.05356,-0.026781 0.0083,0.00494 -0.0033,-0.01391 -0.02678,-0.026781 0.0041,0.00347 -0.0074,-0.011365 -0.02678,-0.026781 0.0069,0.00346 -0.0083,-0.018432 -0.02678,-0.026781 0.0086,0.00642 -0.08933,-0.059451 -0.08034,-0.053562 0.009,0.00589 -0.08967,-0.058894 -0.08034,-0.053562 0.0093,0.00533 -0.08998,-0.031535 -0.08034,-0.026781 0.0096,0.00475 -0.09025,-0.057721 -0.08034,-0.053563 0.0099,0.00416 -0.09049,-0.03033 -0.08034,-0.026781 0.01014,0.00355 -0.09068,-0.029706 -0.08034,-0.026781 0.01034,0.00292 -0.09084,-0.029072 -0.08034,-0.026781 0.0105,0.00229 -0.09096,-0.00165 -0.08034,0 0.01062,0.00165 -0.117824,-0.02778 -0.107125,-0.026781 0.0107,9.984e-4 -0.09108,-3.46e-4 -0.08034,0 -0.01785,-4.825e-4 -0.03571,-4.825e-4 -0.05356,0 z m -7.4184067,8.4896567 0.053562,0.02678 -0.053562,0.02678 z"
     id="path3823"
     inkscape:connector-curvature="0"
     sodipodi:nodetypes="cccsssssssssssssscsccccccccsssssccccscczscccccccccccscccccccscccccccsccccccsccccccccccccccsccccccsccccccsscccscccccccccscsccccccscccccccssccscccccccccccccscsscccccc" />
</svg>

<svg width="16" height="16" viewBox="0 0 16 16" fill="none" xmlns="http://www.w3.org/2000/svg">
<path opacity="0.804" d="M12.8394 1.5608L3.09098 1.69471H3.0642C3.03421 1.69701 2.91618 1.69627 2.93029 1.69471C2.94723 1.69284 2.77971 1.72498 2.79638 1.72149C2.81306 1.718 2.64621 1.75335 2.66248 1.74827C2.67874 1.74319 2.51287 1.80846 2.52857 1.80183C2.54427 1.79521 2.37968 1.89028 2.39467 1.88217C2.40965 1.87406 2.2734 1.94525 2.28754 1.93574C2.30168 1.92623 2.16726 2.02691 2.18042 2.01608C2.19357 2.00525 2.06124 2.13525 2.07329 2.12321C2.08534 2.11116 1.95533 2.24348 1.96617 2.23033C1.977 2.21718 1.87631 2.35159 1.88582 2.33745C1.89533 2.32332 1.82415 2.45957 1.83226 2.44458C1.84037 2.42959 1.74529 2.59418 1.75191 2.57849C1.75853 2.56279 1.69327 2.72866 1.69835 2.71239C1.70343 2.69613 1.66808 2.86298 1.67157 2.8463C1.67506 2.82962 1.64292 2.99714 1.64479 2.9802C1.64635 2.96609 1.64709 3.08412 1.64479 3.11411C1.64433 3.12011 1.64475 3.14373 1.64479 3.14089L1.59123 5.81902V5.8458C1.59196 5.87817 1.59212 5.99496 1.59123 5.9797C1.59016 5.96139 1.62097 6.15849 1.61801 6.14039C1.61505 6.12229 1.64961 6.29199 1.64479 6.2743C1.63997 6.2566 1.70498 6.42531 1.69835 6.4082C1.69172 6.3911 1.76028 6.58521 1.75191 6.56889C1.74354 6.55257 1.84227 6.69138 1.83226 6.67602C1.82224 6.66065 1.92416 6.82417 1.9126 6.80992C1.90105 6.79568 2.0327 6.93002 2.01973 6.91705C2.00676 6.90408 2.1411 7.03573 2.12685 7.02417C2.11261 7.01262 2.27612 7.11453 2.26076 7.10452C2.24539 7.0945 2.38421 7.19323 2.36788 7.18486C2.35156 7.1765 2.54567 7.24505 2.52857 7.23842C2.51147 7.23179 2.68017 7.29681 2.66248 7.29199C2.64478 7.28717 2.81449 7.32173 2.79638 7.31877C2.77828 7.31581 2.97538 7.34661 2.95707 7.34555C2.95402 7.34537 2.97738 7.34561 2.98385 7.34555L1.9126 12.9964C1.8375 13.4876 2.01002 14.0029 2.30093 14.2551C2.59184 14.5073 3.01154 14.7222 3.56207 14.6283C4.18708 14.5218 4.66853 14.0622 4.75142 13.532L4.88532 12.8625L7.53666 11.9519L7.72413 13.2374C7.72363 13.2305 7.72034 13.2611 7.72413 13.291C7.73019 13.3388 7.75286 13.3823 7.75091 13.3713C7.74776 13.3535 7.78267 13.5495 7.7777 13.532C7.77273 13.5146 7.838 13.6828 7.83126 13.6659C7.82452 13.6491 7.89325 13.8159 7.88482 13.7998C7.87639 13.7838 7.9752 13.9488 7.96516 13.9337C7.95513 13.9186 8.05704 14.0549 8.04551 14.0409C8.03397 14.0268 8.16554 14.1607 8.15263 14.148C8.13972 14.1352 8.27391 14.2665 8.25976 14.2551C8.24561 14.2437 8.40891 14.3453 8.39366 14.3354C8.37842 14.3256 8.54374 14.424 8.52757 14.4158C8.5114 14.4076 8.67841 14.4759 8.66148 14.4693C8.64454 14.4628 8.8129 14.5277 8.79538 14.5229C8.77787 14.5182 8.9472 14.5526 8.92929 14.5497C8.91138 14.5468 9.10809 14.5775 9.08998 14.5765C9.07186 14.5754 9.26879 14.5757 9.25066 14.5765C9.23253 14.5772 9.40253 14.547 9.38457 14.5497C9.36662 14.5524 9.56285 14.5184 9.54526 14.5229C9.52767 14.5274 9.6962 14.4899 9.67916 14.4961C9.66213 14.5024 9.82938 14.4078 9.81307 14.4158C9.79676 14.4238 9.96238 14.3526 9.94698 14.3622C9.93158 14.3718 10.0684 14.2708 10.0541 14.2819C10.0398 14.293 10.2011 14.1622 10.188 14.1748C10.1749 14.1873 10.2801 14.0538 10.2683 14.0676C10.2566 14.0815 10.3858 13.9188 10.3755 13.9337C10.3652 13.9487 10.4645 13.8107 10.4558 13.8266C10.4471 13.8425 10.5164 13.676 10.5094 13.6927C10.5024 13.7094 10.5682 13.5146 10.5629 13.532C10.5577 13.5494 10.5932 13.3803 10.5897 13.3981C10.5863 13.4159 10.6181 13.2461 10.6165 13.2642C10.6149 13.2823 10.6162 13.0854 10.6165 13.1035C10.6168 13.1216 10.6144 12.9248 10.6165 12.9428C10.6173 12.9497 10.6216 12.9189 10.6165 12.8893L10.5897 12.8089L10.2148 10.2111L9.59881 6.06005L12.0091 4.9888V8.63105C11.9875 8.66459 11.9484 8.72344 11.9556 8.71139C11.9655 8.69466 11.8937 8.8361 11.902 8.81851C11.9103 8.80093 11.8418 8.9707 11.8484 8.95242C11.855 8.93414 11.8168 9.07836 11.8217 9.05955C11.8266 9.04073 11.7918 9.21264 11.7949 9.19345C11.798 9.17427 11.7668 9.34675 11.7681 9.32736C11.7389 9.32711 11.7064 9.32771 11.7145 9.32736C11.7348 9.32649 11.5606 9.33022 11.5806 9.32736C11.6007 9.3245 11.427 9.35895 11.4467 9.35414C11.4664 9.34932 11.2937 9.41442 11.3128 9.4077C11.332 9.40098 11.1873 9.44305 11.2057 9.43448C11.2241 9.42592 11.0543 9.52515 11.0718 9.51483C11.0892 9.5045 10.9483 9.58038 10.9647 9.56839C10.981 9.5564 10.8424 9.68905 10.8575 9.67552C10.8726 9.66198 10.7635 9.77081 10.7772 9.75586C10.7909 9.74091 10.6579 9.8792 10.6701 9.86298C10.6823 9.84676 10.606 9.98744 10.6165 9.97011C10.627 9.95277 10.5274 10.0955 10.5362 10.0772C10.545 10.0589 10.4757 10.2302 10.4826 10.2111C10.4895 10.1921 10.4508 10.3647 10.4558 10.345C10.4609 10.3254 10.426 10.499 10.4291 10.479C10.4322 10.4589 10.4012 10.6331 10.4023 10.6129C10.4034 10.5926 10.4031 10.767 10.4023 10.7468C10.4014 10.7265 10.4319 10.9007 10.4291 10.8807C10.4263 10.8606 10.4607 11.0343 10.4558 11.0146C10.451 10.9949 10.4893 11.1408 10.4826 11.1217C10.4759 11.1026 10.5447 11.274 10.5362 11.2556C10.5276 11.2372 10.6001 11.3802 10.5897 11.3627C10.5794 11.3453 10.6821 11.513 10.6701 11.4966C10.6581 11.4803 10.764 11.5921 10.7504 11.577C10.7369 11.5619 10.8725 11.6978 10.8575 11.6841C10.8426 11.6704 10.9541 11.7766 10.9379 11.7644C10.9217 11.7523 11.0891 11.8553 11.0718 11.8448C11.0544 11.8343 11.1972 11.9071 11.1789 11.8983C11.1789 11.8983 11.5905 12.0983 12.0895 12.2465C12.3131 12.3129 12.663 12.4253 13.0804 12.4072C13.3158 12.397 13.6231 12.3252 13.8838 12.1662C14.2619 11.9356 14.5098 11.6172 14.6069 11.1217C14.7175 10.5573 14.6619 10.0737 14.6069 9.72906C14.56 9.43501 14.5176 9.29337 14.4998 9.22022C14.5021 9.23719 14.4693 9.09637 14.473 9.11309C14.4767 9.12982 14.4412 8.9896 14.4462 9.00597C14.4513 9.02234 14.3863 8.88295 14.3927 8.89884V3.03375V2.98019C14.3932 2.96666 14.3927 2.94766 14.3927 2.95341C14.3927 2.97064 14.3916 2.88265 14.3927 2.89985C14.3849 2.8727 14.376 2.84589 14.3659 2.8195C14.366 2.81057 14.366 2.80165 14.3659 2.79272C14.3614 2.73855 14.3524 2.68474 14.3391 2.63203C14.3409 2.63754 14.3436 2.61704 14.3391 2.60525C14.3307 2.58713 14.3218 2.56927 14.3123 2.55169C14.3197 2.56956 14.2769 2.45407 14.2855 2.47135C14.2929 2.48921 14.2501 2.37372 14.2588 2.391C14.2674 2.40828 14.1953 2.32084 14.2052 2.33744C14.2151 2.35404 14.1406 2.24127 14.1516 2.2571C14.1351 2.22947 14.1172 2.20264 14.0981 2.17675C14.1137 2.19552 14.0273 2.07916 14.0445 2.09641C14.0618 2.11365 13.9454 2.02728 13.9642 2.04285C13.9466 2.03339 13.9287 2.02445 13.9106 2.01606C13.9143 2.02 13.9012 2.00694 13.8838 1.98928C13.8899 1.99354 13.8732 1.97284 13.8571 1.9625C13.8619 1.96707 13.8247 1.95482 13.8035 1.93572C13.8118 1.94066 13.8002 1.92181 13.7767 1.90894C13.7808 1.91241 13.7693 1.89758 13.7499 1.88216C13.7568 1.88562 13.7416 1.86373 13.7232 1.85538C13.7318 1.8618 13.6338 1.79593 13.6428 1.80182C13.6518 1.80771 13.5532 1.74292 13.5625 1.74825C13.5718 1.75358 13.4725 1.71672 13.4821 1.72147C13.4917 1.72622 13.3919 1.66375 13.4018 1.66791C13.4117 1.67207 13.3113 1.63758 13.3215 1.64113C13.3316 1.64468 13.2308 1.61142 13.2411 1.61435C13.2515 1.61727 13.1503 1.58528 13.1608 1.58757C13.1713 1.58986 13.0698 1.58592 13.0804 1.58757C13.0911 1.58922 12.9626 1.55979 12.9733 1.56079C12.984 1.56179 12.8822 1.56044 12.893 1.56079C12.8751 1.5603 12.8573 1.5603 12.8394 1.56079L12.8394 1.5608ZM5.42095 10.0505L5.47451 10.0772L5.42095 10.104V10.0505Z" fill="#EBE7E4"/>
</svg>
